X:4945
L:1/8
M:3/4
K:Gmin
 D>F G>A (B/A/)G/^F/ | (A/B/)c/d/ (cd) d=B | (d/=B/)d/=e/ (c/A/)c/d/ (B/A/)G/^F/ | 
 G=B (d/B/)d/=e/ c>c | A^F G(A/B/) AG | A(B/c/) cd (d=B) | d(e/d/) c(A/c/) B(G/^F/) | 
 G(A/B/) G2 z2 :: (d>e) d>c AA | (A>B) G>^F DD | (D>^F) GA Bd | (^cd) =e/f/(e/c/) dB | 
 (d>e) d>c AA | (A>B) G>^F DD | (D>^F) GA Bd | Ac/B/ G2 z2 :|

